logos/prerender.svg

<?xml version="1.0" encoding="UTF-8"?>
<svg width="512px" height="81px" viewBox="0 0 512 81" version="1.1" xmlns="http://www.w3.org/2000/svg" xmlns:xlink="http://www.w3.org/1999/xlink" preserveAspectRatio="xMidYMid">
    <title>prerender</title>
    <g>
				<path d="M147.443705,19.7816843 C149.710294,19.7816843 151.829224,20.0042957 153.802746,20.448769 C155.775517,20.8932423 157.496446,21.6337813 158.966281,22.6696364 C160.434617,23.7077401 161.599392,25.0823842 162.459856,26.7958175 C163.319571,28.5092507 163.750552,30.6146899 163.750552,33.1113856 C163.750552,35.5233839 163.319571,37.6183296 162.459856,39.3954732 C161.598642,41.1726168 160.433867,42.6334573 158.965531,43.7749966 C157.495697,44.9187845 155.795755,45.7657572 153.865706,46.3144156 C151.934159,46.8653226 149.877439,47.1404014 147.695548,47.1404014 L147.695548,47.1404014 L142.595723,47.1404014 L142.595723,61.1679181 L133.340485,61.1679181 L133.340485,19.7816843 Z M188.009949,19.7816843 C190.191841,19.7816843 192.238067,19.9945518 194.148627,20.4165391 C196.058438,20.840775 197.726899,21.5498335 199.154011,22.5437148 C200.580373,23.5383455 201.713667,24.8597728 202.553894,26.5102453 C203.392622,28.1607177 203.81311,30.2144391 203.81311,32.6676618 C203.81311,35.7145149 203.152022,38.221704 201.829845,40.189229 C200.508418,42.1567541 198.734272,43.6280881 196.509657,44.6002328 L196.509657,44.6002328 L205.827856,61.1679181 L195.439324,61.1679181 L187.569223,46.2514548 L182.469398,46.2514548 L182.469398,61.1679181 L173.214161,61.1679181 L173.214161,19.7816843 Z M238.907012,19.7824339 L238.907012,27.6532837 L222.474242,27.6532837 L222.474242,35.9678572 L236.45154,35.9678572 L236.45154,43.7749966 L222.474242,43.7749966 L222.474242,53.2970684 L239.537369,53.2970684 L239.537369,61.1686677 L213.219004,61.1686677 L213.219004,19.7824339 L238.907012,19.7824339 Z M262.98727,19.7816843 C265.169161,19.7816843 267.215387,19.9945518 269.125198,20.4165391 C271.035759,20.840775 272.70497,21.5498335 274.132081,22.5437148 C275.557694,23.5383455 276.690988,24.8597728 277.531215,26.5102453 C278.369943,28.1607177 278.790431,30.2144391 278.790431,32.6676618 C278.790431,35.7145149 278.130092,38.221704 276.807166,40.189229 C275.484239,42.1567541 273.710843,43.6280881 271.486978,44.6002328 L271.486978,44.6002328 L280.805926,61.1679181 L270.417394,61.1679181 L262.547294,46.2514548 L257.447469,46.2514548 L257.447469,61.1679181 L248.191481,61.1679181 L248.191481,19.7816843 Z M314.35354,19.7824339 L314.35354,27.6532837 L297.920771,27.6532837 L297.920771,35.9678572 L311.898069,35.9678572 L311.898069,43.7749966 L297.920771,43.7749966 L297.920771,53.2970684 L314.983148,53.2970684 L314.983148,61.1686677 L288.666282,61.1686677 L288.666282,19.7824339 L314.35354,19.7824339 Z M333.614299,19.7824339 L344.317635,40.3481301 L348.347126,49.4879399 L348.59897,49.4879399 C348.3891,47.288809 348.147001,44.8340872 347.87492,42.1252737 C347.60209,39.4179592 347.465675,36.8358168 347.465675,34.3810951 L347.465675,34.3810951 L347.465675,19.7824339 L356.280188,19.7824339 L356.280188,61.1679181 L346.773106,61.1679181 L336.069021,40.5385116 L332.040279,31.525373 L331.788436,31.525373 C331.997555,33.8107002 332.238905,36.2654219 332.511735,38.8880391 C332.784565,41.5129049 332.92173,44.0515744 332.92173,46.5055466 L332.92173,46.5055466 L332.92173,61.1686677 L324.107218,61.1686677 L324.107218,19.7824339 L333.614299,19.7824339 Z M377.561688,19.7824339 C380.708979,19.7824339 383.542964,20.1849333 386.061396,20.988433 C388.579079,21.7926823 390.740733,23.0309114 392.545609,24.7016213 C394.349736,26.3738302 395.735623,28.4995068 396.700273,31.0816492 C397.665672,33.6630421 398.149121,36.7308821 398.149121,40.2851693 C398.149121,43.8394565 397.665672,46.929033 396.700273,49.5523997 C395.734874,52.176516 394.371473,54.344916 392.607821,56.0590988 C390.845668,57.772532 388.736481,59.052735 386.28101,59.8989582 C383.825538,60.7459309 381.085994,61.1686677 378.064625,61.1686677 L378.064625,61.1686677 L365.976151,61.1686677 L365.976151,19.7824339 Z M433.524097,19.7824339 L433.524097,27.6532837 L417.090578,27.6532837 L417.090578,35.9678572 L431.067876,35.9678572 L431.067876,43.7749966 L417.090578,43.7749966 L417.090578,53.2970684 L434.153705,53.2970684 L434.153705,61.1686677 L407.83609,61.1686677 L407.83609,19.7824339 L433.524097,19.7824339 Z M458.072814,19.7816843 C460.254705,19.7816843 462.300931,19.9945518 464.211492,20.4165391 C466.121303,20.840775 467.789764,21.5498335 469.216876,22.5437148 C470.643237,23.5383455 471.776532,24.8597728 472.616759,26.5102453 C473.456236,28.1607177 473.876724,30.2144391 473.876724,32.6676618 C473.876724,35.7145149 473.215636,38.221704 471.893459,40.189229 C470.571282,42.1567541 468.797137,43.6280881 466.572522,44.6009824 L466.572522,44.6009824 L475.89147,61.1679181 L465.502938,61.1679181 L457.632837,46.2514548 L452.533013,46.2514548 L452.533013,61.1679181 L443.277775,61.1679181 L443.277775,19.7816843 Z M376.994291,27.336231 L375.230639,27.336231 L375.230639,53.6148705 L376.994291,53.6148705 C378.757194,53.6148705 380.352201,53.3825152 381.779312,52.9163054 C383.205674,52.4515947 384.423666,51.7005623 385.431788,50.6632082 C386.438412,49.6266035 387.225422,48.2617033 387.792069,46.5685074 C388.358716,44.8768106 388.64204,42.7818649 388.64204,40.2851693 C388.64204,37.8311971 388.358716,35.7684813 387.792069,34.0962724 C387.226171,32.424813 386.439161,31.0921427 385.431788,30.0975119 C384.423666,29.1036307 383.205674,28.3938226 381.779312,27.9710858 C380.351451,27.548349 378.757194,27.336231 376.994291,27.336231 L376.994291,27.336231 Z M504.333263,31.2930176 C505.450817,31.2840232 506.473181,31.4901449 507.40485,31.9083845 C508.33652,32.3266241 509.143018,32.9284994 509.824344,33.7132608 C510.50642,34.4980223 511.03634,35.4559259 511.414854,36.5877213 C511.791869,37.7195166 511.987497,38.9937233 511.99949,40.4088423 C512.010733,41.8441987 511.836092,43.1393923 511.476316,44.2951728 C511.11579,45.4517027 510.60236,46.43584 509.933027,47.2490837 C509.264443,48.0630769 508.467689,48.6911859 507.543514,49.1349096 C506.620089,49.5786334 505.599225,49.8042429 504.483169,49.8132373 C503.365615,49.8229813 502.341753,49.6131119 501.410832,49.1851284 C500.479912,48.7571448 499.677162,48.1410284 499.00483,47.3382782 C498.331749,46.5362775 497.805577,45.5603851 497.427812,44.4098514 C497.049298,43.2600672 496.854419,41.9671222 496.843176,40.5325153 C496.831183,39.098658 497.005825,37.8132083 497.365601,36.6746671 C497.725377,35.537625 498.235059,34.570727 498.896148,33.7754721 C499.555737,32.9802172 500.347994,32.3700971 501.272169,31.9451117 C502.195594,31.5201262 503.216458,31.3027616 504.333263,31.2930176 Z M492.935859,31.7135058 L493.079019,49.580882 L490.837165,49.5988708 L490.693255,31.7314946 L492.935859,31.7135058 Z M504.349753,33.2822792 C503.557496,33.2882754 502.84319,33.4621672 502.206087,33.8032048 C501.568984,34.1442425 501.023323,34.6261925 500.569856,35.2468061 C500.115639,35.8681692 499.765607,36.6244484 499.521259,37.5163931 C499.276161,38.4075882 499.157735,39.4074657 499.166729,40.515276 C499.175724,41.6410751 499.309141,42.6521956 499.569229,43.5486375 C499.827818,44.445829 500.190592,45.2148502 500.654553,45.8549517 C501.119264,46.4965522 501.672419,46.986747 502.314769,47.3262857 C502.95637,47.6658243 503.672924,47.8329702 504.46668,47.8262244 C505.258187,47.8194786 505.972492,47.6418392 506.609596,47.2910576 C507.246699,46.9410255 507.792359,46.4418363 508.245827,45.7927404 C508.700044,45.1443941 509.049327,44.3701261 509.294424,43.469187 C509.539521,42.5682479 509.657948,41.5548788 509.648204,40.4298292 C509.639209,39.3227685 509.505792,38.3251396 509.246454,37.4369426 C508.987115,36.5494951 508.625091,35.7984626 508.16113,35.1845948 C507.697168,34.570727 507.143263,34.098521 506.501663,33.7679768 C505.860062,33.4374326 505.142009,33.2755334 504.349753,33.2822792 Z M482.150823,38.9150223 C482.583304,38.9112747 482.958071,39.0671776 483.275873,39.3819816 C483.592925,39.6975352 483.754075,40.1180234 483.758572,40.6441958 C483.763069,41.1343906 483.608665,41.5398881 483.29611,41.8599389 C482.983555,42.1799896 482.611037,42.3426384 482.179305,42.3456365 C481.728836,42.3493842 481.344325,42.1934812 481.027273,41.8786772 C480.70947,41.5638732 480.548321,41.1606243 480.544573,40.6704295 C480.540076,40.144257 480.69373,39.7207707 481.007035,39.4007199 C481.318841,39.0806692 481.699604,38.91877 482.150823,38.9150223 Z M146.877057,27.2088104 L142.595723,27.2088104 L142.595723,39.7132754 L147.128901,39.7132754 C152.165765,39.7132754 154.684946,37.513395 154.684197,33.1121351 C154.684197,30.953479 154.012615,29.4304272 152.669451,28.5414807 C151.325538,27.6532837 149.39474,27.2088104 146.877057,27.2088104 L146.877057,27.2088104 Z M187.255169,27.2088104 L182.470148,27.2088104 L182.470148,38.8250783 L187.255169,38.8250783 C189.688904,38.8250783 191.546247,38.3071508 192.8272,37.2697966 C194.106653,36.233192 194.747504,34.6988972 194.747504,32.6676618 C194.747504,30.6364264 194.107403,29.2190588 192.8272,28.4148095 C191.546247,27.6113098 189.688904,27.2088104 187.255169,27.2088104 L187.255169,27.2088104 Z M262.230991,27.2088104 L257.44597,27.2088104 L257.44597,38.8250783 L262.230991,38.8250783 C264.664725,38.8250783 266.522069,38.3071508 267.803022,37.2697966 C269.083224,36.233192 269.723326,34.6988972 269.723326,32.6676618 C269.723326,30.6364264 269.083224,29.2190588 267.803022,28.4148095 C266.522069,27.6113098 264.664725,27.2088104 262.230991,27.2088104 L262.230991,27.2088104 Z M457.317284,27.2088104 L452.532263,27.2088104 L452.532263,38.8250783 L457.317284,38.8250783 C459.751019,38.8250783 461.609112,38.3071508 462.890064,37.2697966 C464.169518,36.233192 464.810369,34.6988972 464.810369,32.6676618 C464.810369,30.6364264 464.169518,29.2190588 462.890064,28.4148095 C461.609112,27.6113098 459.751019,27.2088104 457.317284,27.2088104 L457.317284,27.2088104 Z" fill="#5D7B8C"></path>
				<g>
						<path d="M26.9832008,0 L26.9832008,26.9832008 L40.4748012,26.9832008 C47.9259123,26.9832008 53.9664017,20.9427115 53.9664017,13.4916004 L53.9664017,0 L26.9832008,0 Z" fill="#F0DA50"></path>
						<path d="M13.4916004,0 C6.04048932,0 0,6.04048932 0,13.4916004 L0,67.4580021 C0,74.9091132 6.04048932,80.9496025 13.4916004,80.9496025 L26.9832008,80.9496025 L26.9832008,0 L13.4916004,0 Z" fill="#4BC69A"></path>
						<path d="M67.4580021,53.9664017 C60.006891,53.9664017 53.9664017,60.006891 53.9664017,67.4580021 L53.9664017,80.9496025 L80.9496025,80.9496025 L80.9496025,53.9664017 L67.4580021,53.9664017 Z" fill="#F0DA50"></path>
						<path d="M94.4412029,0 L80.9496025,0 L80.9496025,80.9496025 L94.4412029,80.9496025 C101.892314,80.9496025 107.932803,74.9091132 107.932803,67.4580021 L107.932803,13.4916004 C107.932803,6.04048932 101.892314,0 94.4412029,0 Z" fill="#5D7B8C"></path>
				</g>
		</g>
</svg>

<svg width="512" height="81" xmlns="http://www.w3.org/2000/svg" preserveAspectRatio="xMidYMid">
	<path d="M147.444 19.782c2.266 0 4.385.222 6.359.667 1.973.444 3.693 1.185 5.163 2.22 1.469 1.039 2.633 2.413 3.494 4.127.86 1.713 1.29 3.819 1.29 6.315 0 2.412-.43 4.507-1.29 6.284-.861 1.778-2.026 3.238-3.494 4.38-1.47 1.144-3.17 1.99-5.1 2.54-1.932.55-3.989.825-6.17.825h-5.1v14.028h-9.256V19.782Zm40.566 0c2.182 0 4.228.213 6.139.635 1.91.424 3.578 1.133 5.005 2.127 1.426.994 2.56 2.316 3.4 3.966.839 1.65 1.26 3.704 1.26 6.158 0 3.047-.662 5.554-1.984 7.521-1.322 1.968-3.096 3.44-5.32 4.411l9.318 16.568h-10.389l-7.87-14.917h-5.1v14.917h-9.255V19.782Zm50.897 0v7.871h-16.433v8.315h13.978v7.807h-13.978v9.522h17.063v7.872H213.22V19.782h25.688Zm24.08 0c2.182 0 4.228.213 6.138.635 1.91.424 3.58 1.133 5.007 2.127 1.426.994 2.559 2.316 3.4 3.966.838 1.65 1.258 3.704 1.258 6.158 0 3.047-.66 5.554-1.983 7.521-1.323 1.968-3.096 3.44-5.32 4.411l9.319 16.568h-10.389l-7.87-14.917h-5.1v14.917h-9.256V19.782Zm51.367 0v7.871H297.92v8.315h13.977v7.807h-13.977v9.522h17.062v7.872h-26.317V19.782h25.688Zm19.26 0 10.704 20.566 4.03 9.14h.251c-.21-2.2-.452-4.654-.724-7.363a77.361 77.361 0 0 1-.41-7.744V19.782h8.815v41.386h-9.507l-10.704-20.63-4.029-9.013h-.252c.21 2.286.45 4.74.724 7.363.273 2.625.41 5.164.41 7.618v14.663h-8.815V19.782h9.507Zm43.948 0c3.147 0 5.981.403 8.5 1.206 2.517.805 4.679 2.043 6.484 3.714 1.804 1.672 3.19 3.798 4.154 6.38.966 2.581 1.45 5.649 1.45 9.203 0 3.554-.484 6.644-1.45 9.267-.965 2.625-2.329 4.793-4.092 6.507-1.762 1.714-3.872 2.994-6.327 3.84-2.455.847-5.195 1.27-8.216 1.27h-12.089V19.782Zm55.962 0v7.871h-16.433v8.315h13.977v7.807H417.09v9.522h17.063v7.872h-26.318V19.782h25.688Zm24.549 0c2.182 0 4.228.213 6.138.635 1.91.424 3.579 1.133 5.006 2.127 1.426.994 2.56 2.316 3.4 3.966.84 1.65 1.26 3.704 1.26 6.158 0 3.047-.661 5.554-1.984 7.521-1.322 1.968-3.096 3.44-5.32 4.412l9.318 16.567h-10.388l-7.87-14.917h-5.1v14.917h-9.255V19.782Zm-81.079 7.554h-1.763v26.279h1.763c1.763 0 3.358-.232 4.785-.699 1.427-.464 2.645-1.215 3.653-2.253 1.006-1.036 1.793-2.401 2.36-4.094.567-1.692.85-3.787.85-6.284 0-2.454-.283-4.517-.85-6.189-.566-1.671-1.353-3.004-2.36-3.998-1.008-.994-2.226-1.704-3.653-2.127-1.428-.423-3.022-.635-4.785-.635Zm127.34 3.957c1.117-.009 2.14.197 3.07.615a6.932 6.932 0 0 1 2.42 1.805c.682.785 1.212 1.743 1.59 2.875.378 1.132.573 2.406.585 3.82.012 1.436-.163 2.731-.523 3.887-.36 1.157-.874 2.14-1.543 2.954a6.963 6.963 0 0 1-2.39 1.886c-.923.444-1.944.67-3.06.678-1.117.01-2.141-.2-3.072-.628a6.829 6.829 0 0 1-2.406-1.847c-.673-.802-1.2-1.778-1.577-2.928-.379-1.15-.574-2.443-.585-3.877-.012-1.434.163-2.72.523-3.858.36-1.137.87-2.104 1.53-2.9a6.678 6.678 0 0 1 2.376-1.83c.924-.425 1.944-.642 3.061-.652Zm-11.398.42.143 17.868-2.242.018-.144-17.868 2.243-.017Zm11.414 1.57c-.793.005-1.507.18-2.144.52a4.854 4.854 0 0 0-1.636 1.444c-.454.621-.804 1.377-1.049 2.27-.245.89-.363 1.89-.354 2.998.009 1.126.142 2.137.402 3.034.259.897.622 1.666 1.086 2.306.464.642 1.017 1.132 1.66 1.471.641.34 1.358.507 2.152.5.791-.007 1.505-.184 2.143-.535a4.824 4.824 0 0 0 1.636-1.498c.454-.649.803-1.423 1.048-2.324.246-.9.364-1.914.354-3.04-.009-1.106-.142-2.104-.402-2.992-.259-.888-.62-1.639-1.085-2.252a4.858 4.858 0 0 0-1.66-1.417c-.64-.33-1.359-.492-2.151-.486Zm-22.2 5.632c.433-.004.808.152 1.126.467.317.316.478.736.483 1.262.004.49-.15.896-.463 1.216-.312.32-.685.483-1.117.486a1.556 1.556 0 0 1-1.152-.467c-.318-.315-.479-.718-.482-1.209-.005-.526.149-.95.462-1.27.312-.32.693-.481 1.144-.485ZM146.878 27.209h-4.281v12.504h4.533c5.037 0 7.556-2.2 7.555-6.6 0-2.16-.671-3.683-2.015-4.572-1.343-.888-3.274-1.332-5.792-1.332Zm40.378 0h-4.785v11.616h4.785c2.434 0 4.291-.518 5.572-1.555 1.28-1.037 1.92-2.571 1.92-4.602 0-2.032-.64-3.449-1.92-4.253-1.28-.804-3.138-1.206-5.572-1.206Zm74.976 0h-4.785v11.616h4.785c2.434 0 4.291-.518 5.572-1.555 1.28-1.037 1.92-2.571 1.92-4.602 0-2.032-.64-3.449-1.92-4.253-1.28-.804-3.138-1.206-5.572-1.206Zm195.086 0h-4.785v11.616h4.785c2.434 0 4.292-.518 5.573-1.555 1.28-1.037 1.92-2.571 1.92-4.602 0-2.032-.64-3.449-1.92-4.253-1.28-.804-3.139-1.206-5.573-1.206Z" fill="#5D7B8C"/>
	<path d="M26.983 0v26.983h13.492c7.45 0 13.491-6.04 13.491-13.491V0H26.983Z" fill="#F0DA50"/>
	<path d="M13.492 0C6.04 0 0 6.04 0 13.492v53.966C0 74.909 6.04 80.95 13.492 80.95h13.491V0H13.492Z" fill="#4BC69A"/>
	<path d="M67.458 53.966c-7.451 0-13.492 6.04-13.492 13.492V80.95H80.95V53.966H67.458Z" fill="#F0DA50"/>
	<path d="M94.441 0H80.95v80.95H94.44c7.451 0 13.492-6.04 13.492-13.492V13.492C107.933 6.04 101.893 0 94.44 0Z" fill="#5D7B8C"/>
</svg>
